packages/foundations/assets/icons/functional/images/notification/question_mark_circle_12.svg

<svg width="12" height="12" viewBox="0 0 12 12" fill="none" xmlns="http://www.w3.org/2000/svg">
<g clip-path="url(#clip0_232_417)">
<path fill-rule="evenodd" clip-rule="evenodd" d="M6.00025 1.20001C8.63917 1.20001 10.8 3.34879 10.8 5.99689C10.8 8.63587 8.65165 10.8 6.00001 10.8C3.34747 10.8 1.20001 8.63491 1.20001 5.99719C1.20001 3.35497 3.35413 1.20001 6.00025 1.20001ZM5.99977 2.40001C4.01647 2.40001 2.40589 4.00753 2.40589 5.99689C2.40589 7.97701 4.00393 9.60001 6.00001 9.60001C7.99699 9.60001 9.59413 7.97599 9.59413 5.99719C9.59413 4.01383 7.99027 2.40001 5.99977 2.40001ZM5.77759 8.69857C6.11707 8.69857 6.37465 8.42929 6.37465 8.10145C6.37465 7.77367 6.11707 7.51609 5.77759 7.51609C5.43805 7.51609 5.18047 7.77367 5.18047 8.10145C5.18047 8.42929 5.43805 8.69857 5.77759 8.69857ZM5.18047 6.97759H6.37465V6.36877C6.37465 5.96053 7.43113 5.75395 7.43113 4.58941C7.43113 3.75793 6.77269 3.30145 5.92309 3.30145C5.38459 3.30145 4.79371 3.48547 4.53889 3.69151L4.94689 4.75045C5.20459 4.60765 5.53675 4.49563 5.82385 4.49563C6.15847 4.49563 6.24589 4.64779 6.24589 4.81681C6.24589 5.40673 5.18047 5.35279 5.18047 6.36877V6.97759Z" fill="#1A1C1F"/>
</g>
<defs>
<clipPath id="clip0_232_417">
<rect width="12" height="12" fill="white"/>
</clipPath>
</defs>
</svg>

<svg xmlns="http://www.w3.org/2000/svg" width="12" height="12" fill="none"><g clip-path="url(#a)"><path fill="#1A1C1F" fill-rule="evenodd" d="M6 1.2c2.64 0 4.8 2.149 4.8 4.797A4.81 4.81 0 0 1 6 10.8a4.81 4.81 0 0 1-4.8-4.803A4.807 4.807 0 0 1 6 1.2m0 1.2a3.595 3.595 0 0 0-3.594 3.597A3.6 3.6 0 0 0 6 9.6a3.6 3.6 0 0 0 3.594-3.603A3.594 3.594 0 0 0 6 2.4m-.222 6.299c.34 0 .597-.27.597-.598a.58.58 0 0 0-.597-.585.58.58 0 0 0-.598.585c0 .328.258.598.598.598M5.18 6.978h1.195v-.61c0-.407 1.056-.614 1.056-1.779 0-.831-.658-1.288-1.508-1.288-.538 0-1.13.184-1.384.39l.408 1.06c.258-.143.59-.255.877-.255.334 0 .422.152.422.32 0 .59-1.066.537-1.066 1.553z" clip-rule="evenodd"/></g><defs><clipPath id="a"><path fill="#fff" d="M0 0h12v12H0z"/></clipPath></defs></svg>
